;FLAVOR:UltiGCode
;TIME:16199
;MATERIAL:16996
;MATERIAL2:0
;NOZZLE_DIAMETER:0.4
;MINX:72.531
;MINY:86.71
;MINZ:0.27
;MAXX:150.262
;MAXY:136.326
;MAXZ:24.97
;Generated with Cura_SteamEngine 4.13.1
M82 ;absolute extrusion mode
G0 F3000 Y50 ;avoid prime blob
G92 E0
G92 E0
G10
;LAYER_COUNT:248
;LAYER:0
M107
G0 F4320 X74.058 Y89.107 Z0.27
;TYPE:SKIRT
G11
G1 F1800 X74.507 Y88.823 E0.05021
G1 X74.993 Y88.61 E0.10035
G1 X75.505 Y88.472 E0.15046
G1 X76.037 Y88.412 E0.20105
G1 X76.225 Y88.405 E0.21883
G1 X79.005 Y88.266 E0.48187
G1 X81.697 Y88.055 E0.73704
G1 X84.418 Y87.764 E0.99565
G1 X87.105 Y87.4 E1.25189
G1 X88.838 Y87.104 E1.41803
G1 X88.941 Y87.094 E1.42781
G1 X90.378 Y86.86 E1.56539
G1 X90.969 Y86.802 E1.62151
G1 X91.58 Y86.791 E1.67926
G1 X92.594 Y86.805 E1.77509
G1 X92.805 Y86.801 E1.79503
G1 X93.655 Y86.818 E1.87537
G1 X96.271 Y86.798 E2.12259
G1 X97.292 Y86.777 E2.2191
G1 X97.844 Y86.797 E2.2713
G1 X98.339 Y86.844 E2.31828
G1 X99.141 Y86.94 E2.39461
G1 X100.334 Y87.102 E2.50839
G1 X103.05 Y87.392 E2.76651
G1 X105.737 Y87.601 E3.0212
G1 X108.51 Y87.74 E3.28357
G1 X111.205 Y87.797 E3.53831
G1 X113.939 Y87.778 E3.79668
G1 X116.677 Y87.682 E4.05558
G1 X119.402 Y87.509 E4.31361
G1 X122.106 Y87.26 E4.57022
G1 X125.926 Y86.778 E4.93407
G1 X126.444 Y86.74 E4.98315
G1 X127.245 Y86.712 E5.05889
G1 X127.446 Y86.711 E5.07789
G1 X128.177 Y86.727 E5.14698
G1 X130.948 Y86.748 E5.40885
G1 X131.841 Y86.727 E5.49326
G1 X133.232 Y86.71 E5.62472
G1 X133.734 Y86.738 E5.67223
G1 X134.287 Y86.817 E5.72502
G1 X135.121 Y86.959 E5.80497
G1 X137.828 Y87.446 E6.06489
G1 X140.556 Y87.857 E6.32559
G1 X143.262 Y88.188 E6.58322
G1 X144.302 Y88.279 E6.68187
G1 X144.395 Y88.294 E6.69078
G1 X145.725 Y88.427 E6.81709
G1 X146.248 Y88.52 E6.86729
G1 X146.75 Y88.689 E6.91734
G1 X147.222 Y88.933 E6.96755
G1 X147.652 Y89.244 E7.0177
G1 X148.028 Y89.61 E7.06729
G1 X148.365 Y90.02 E7.11744
G1 X148.635 Y90.477 E7.1676
G1 X148.881 Y91.128 E7.23337
G1 X149.134 Y92.072 E7.32572
G1 X149.906 Y94.796 E7.59328
G1 X150.102 Y95.454 E7.65816
G1 X150.215 Y95.972 E7.70826
G1 X150.257 Y96.577 E7.76557
G1 X150.262 Y96.986 E7.80423
G1 X150.262 Y125.826 E10.52961
G1 X150.252 Y126.527 E10.59586
G1 X150.215 Y126.99 E10.63975
G1 X150.058 Y127.664 E10.70515
G1 X149.412 Y129.881 E10.92337
G1 X149.101 Y131.074 E11.03987
G1 X148.874 Y131.9 E11.12083
G1 X148.695 Y132.4 E11.17101
G1 X148.444 Y132.867 E11.22111
G1 X147.955 Y133.471 E11.29455
G1 X147.854 Y133.571 E11.30798
G1 X147.45 Y133.915 E11.35813
G1 X146.999 Y134.194 E11.40824
G1 X146.511 Y134.403 E11.45841
G1 X145.997 Y134.536 E11.50858
G1 X145.698 Y134.576 E11.53709
G1 X144.916 Y134.648 E11.6113
G1 X142.173 Y134.942 E11.872
G1 X139.491 Y135.305 E12.12776
G1 X135.495 Y135.989 E12.51087
G1 X134.634 Y136.155 E12.59374
G1 X134.119 Y136.218 E12.64277
G1 X133.398 Y136.25 E12.71097
G1 X133.227 Y136.252 E12.72713
G1 X130.64 Y136.222 E12.97162
G1 X128.854 Y136.253 E13.14042
G1 X128.767 Y136.248 E13.14865
G1 X127.469 Y136.275 E13.27134
G1 X126.596 Y136.217 E13.35402
G1 X126.475 Y136.204 E13.36552
G1 X125.653 Y136.099 E13.44383
G1 X124.444 Y135.937 E13.5591
G1 X121.756 Y135.643 E13.81464
G1 X118.998 Y135.421 E14.07611
G1 X116.3 Y135.28 E14.33142
G1 X113.567 Y135.215 E14.58976
G1 X110.834 Y135.227 E14.84803
G1 X108.096 Y135.317 E15.10691
G1 X105.405 Y135.481 E15.36168
G1 X102.682 Y135.724 E15.62003
G1 X99.088 Y136.165 E15.96221
G1 X98.121 Y136.266 E16.05409
G1 X97.358 Y136.256 E16.1262
G1 X94.602 Y136.23 E16.38665
G1 X90.711 Y136.326 E16.75446
G1 X89.99 Y136.27 E16.8228
G1 X88.846 Y136.061 E16.9327
G1 X86.14 Y135.604 E17.19204
G1 X83.441 Y135.227 E17.44957
G1 X80.752 Y134.929 E17.70524
G1 X78.039 Y134.706 E17.96248
G1 X76.306 Y134.608 E18.12651
G1 X75.93 Y134.583 E18.16212
G1 X75.405 Y134.508 E18.21224
G1 X74.897 Y134.355 E18.26237
G1 X74.417 Y134.128 E18.31255
G1 X73.977 Y133.831 E18.36271
G1 X73.586 Y133.474 E18.41275
G1 X73.238 Y133.074 E18.46285
G1 X72.954 Y132.625 E18.51306
G1 X72.741 Y132.139 E18.5632
G1 X72.603 Y131.627 E18.61331
G1 X72.543 Y131.086 E18.66475
G1 X72.531 Y130.41 E18.72864
G1 X72.531 Y92.648 E22.29715
G1 X72.541 Y91.98 E22.36028
G1 X72.589 Y91.452 E22.41039
G1 X72.716 Y90.936 E22.4606
G1 X72.918 Y90.446 E22.51069
G1 X73.192 Y89.991 E22.56088
G1 X73.561 Y89.553 E22.615
G1 X73.658 Y89.455 E22.62803
G1 X74.058 Y89.107 E22.67814
G0 F4320 X74.288 Y89.373
G1 F1800 X74.717 Y89.109 E22.72574
G1 X75.182 Y88.915 E22.77335
G1 X75.672 Y88.798 E22.82096
G1 X76.258 Y88.755 E22.87648
G1 X79.015 Y88.617 E23.13735
G1 X81.724 Y88.404 E23.39414
G1 X84.468 Y88.111 E23.65492
G1 X87.153 Y87.747 E23.91097
G1 X88.897 Y87.449 E24.07817
G1 X88.991 Y87.441 E24.08708
G1 X90.516 Y87.193 E24.23309
G1 X91.465 Y87.142 E24.3229
G1 X91.575 Y87.141 E24.3333
G1 X92.702 Y87.157 E24.43981
G1 X92.799 Y87.151 E24.44899
G1 X93.651 Y87.168 E24.52952
G1 X96.274 Y87.148 E24.7774
G1 X97.3 Y87.127 E24.87438
G1 X97.812 Y87.145 E24.92279
G1 X98.297 Y87.191 E24.96883
G1 X99.094 Y87.287 E25.04469
G1 X100.285 Y87.448 E25.15827
G1 X103.021 Y87.74 E25.41829
G1 X105.73 Y87.952 E25.67507
G1 X108.485 Y88.089 E25.93574
G1 X111.2 Y88.147 E26.19237
G1 X113.954 Y88.128 E26.45262
G1 X116.674 Y88.032 E26.70982
G1 X119.421 Y87.858 E26.96994
G1 X122.149 Y87.607 E27.22882
G1 X125.969 Y87.125 E27.59267
G1 X126.456 Y87.09 E27.63881
G1 X127.257 Y87.062 E27.71455
G1 X127.438 Y87.061 E27.73166
G1 X128.166 Y87.077 E27.80047
G1 X130.954 Y87.098 E28.06394
G1 X131.845 Y87.077 E28.14817
G1 X133.236 Y87.06 E28.27963
G1 X133.857 Y87.106 E28.33847
G1 X134.229 Y87.162 E28.37402
G1 X135.059 Y87.303 E28.45358
G1 X137.783 Y87.793 E28.71513
G1 X140.501 Y88.202 E28.97487
G1 X143.218 Y88.534 E29.23354
G1 X144.271 Y88.627 E29.33344
G1 X144.378 Y88.645 E29.34369
G1 X145.69 Y88.776 E29.46829
G1 X146.186 Y88.865 E29.51591
G1 X146.661 Y89.032 E29.56349
G1 X147.104 Y89.272 E29.6111
G1 X147.673 Y89.744 E29.68097
G1 X147.775 Y89.851 E29.69494
G1 X148.093 Y90.242 E29.74256
G1 X148.344 Y90.678 E29.7901
G1 X148.543 Y91.219 E29.84458
G1 X148.798 Y92.167 E29.93735
G1 X149.583 Y94.936 E30.20933
G1 X149.767 Y95.554 E30.27027
G1 X149.872 Y96.046 E30.31781
G1 X149.907 Y96.581 E30.36847
G1 X149.912 Y96.99 E30.40713
G1 X149.912 Y125.821 E33.13166
G1 X149.902 Y126.522 E33.19791
G1 X149.868 Y126.94 E33.23754
G1 X149.72 Y127.57 E33.29869
G1 X149.079 Y129.773 E33.51551
G1 X148.763 Y130.981 E33.63351
G1 X148.536 Y131.807 E33.71446
G1 X148.365 Y132.281 E33.76208
G1 X148.121 Y132.721 E33.80962
G1 X147.709 Y133.222 E33.87092
G1 X147.608 Y133.322 E33.88435
G1 X147.223 Y133.647 E33.93196
G1 X146.792 Y133.907 E33.97953
G1 X146.325 Y134.095 E34.0271
G1 X145.666 Y134.228 E34.09063
G1 X144.853 Y134.303 E34.16779
G1 X142.123 Y134.595 E34.42725
G1 X139.443 Y134.959 E34.68283
G1 X135.469 Y135.638 E35.06382
G1 X134.568 Y135.812 E35.15053
G1 X133.72 Y135.887 E35.23098
G1 X133.231 Y135.902 E35.27722
G1 X130.673 Y135.873 E35.51896
G1 X128.848 Y135.904 E35.69145
G1 X128.756 Y135.898 E35.70016
G1 X127.462 Y135.925 E35.82247
G1 X126.628 Y135.868 E35.90147
G1 X126.519 Y135.857 E35.91182
G1 X125.699 Y135.752 E35.98994
G1 X124.485 Y135.589 E36.1057
G1 X121.787 Y135.295 E36.36217
G1 X119.045 Y135.074 E36.62213
G1 X116.29 Y134.93 E36.88283
G1 X113.574 Y134.865 E37.13956
G1 X110.821 Y134.877 E37.39973
G1 X108.1 Y134.966 E37.657
G1 X105.353 Y135.134 E37.91707
G1 X102.637 Y135.377 E38.17476
G1 X99.054 Y135.816 E38.51589
G1 X98.121 Y135.916 E38.60456
G1 X97.37 Y135.906 E38.67554
G1 X94.598 Y135.879 E38.9375
G1 X90.703 Y135.976 E39.30569
G1 X90.053 Y135.925 E39.36731
G1 X88.951 Y135.724 E39.47316
G1 X86.211 Y135.261 E39.73577
G1 X83.489 Y134.881 E39.99549
G1 X80.75 Y134.577 E40.25591
G1 X78.052 Y134.355 E40.51174
G1 X76.329 Y134.259 E40.67481
G1 X75.953 Y134.234 E40.71042
G1 X75.455 Y134.161 E40.75799
G1 X74.975 Y134.01 E40.80554
G1 X74.524 Y133.785 E40.85317
G1 X73.93 Y133.323 E40.92428
G1 X73.832 Y133.226 E40.93731
G1 X73.504 Y132.844 E40.98489
G1 X73.24 Y132.415 E41.03249
G1 X73.046 Y131.95 E41.08011
G1 X72.929 Y131.46 E41.12771
G1 X72.888 Y130.925 E41.17842
G1 X72.881 Y130.406 E41.22747
G1 X72.881 Y92.653 E44.79513
G1 X72.891 Y91.985 E44.85826
G1 X72.939 Y91.484 E44.90582
G1 X73.065 Y90.997 E44.95336
G1 X73.267 Y90.535 E45.00101
G1 X73.539 Y90.111 E45.04861
G1 X73.906 Y89.701 E45.10061
G1 X74.288 Y89.373 E45.14819
G0 F4320 X76.232 Y92.1
;TYPE:SUPPORT
G1 F1800 X87.83 Y92.1 E46.2442
G1 X88.331 Y91.6 E46.31109
G1 X89.751 Y91.6 E46.44528
G1 X90.101 Y91.25 E46.49206
G1 X90.101 Y90.709 E46.54318
G1 X90.478 Y90.755 E46.57907
G1 X90.902 Y90.527 E46.62457
G1 X91.314 Y90.478 E46.66377
G1 X92.935 Y90.55 E46.81711
G1 X92.753 Y90.55 E46.83431
G1 X92.137 Y91.166 E46.91663
G1 X92.128 Y91.456 E46.94405
G1 X92.129 Y99.853 E47.73757
G1 X92.138 Y100.146 E47.76527
G1 X92.756 Y100.758 E47.84746
G1 X95.946 Y100.758 E48.14892
G1 X96.562 Y100.142 E48.23124
G1 X96.561 Y91.662 E49.0326
G1 X96.376 Y91.446 E49.05948
G1 X96.375 Y91.161 E49.08641
G1 X95.809 Y90.6 E49.16172
G1 X96.97 Y90.467 E49.27215
G1 X97.757 Y90.496 E49.34657
G1 X97.757 Y90.637 E49.35989
G1 X98.107 Y90.987 E49.40667
G1 X98.487 Y90.987 E49.44258
G1 X98.541 Y91.294 E49.47204
G1 X98.905 Y91.6 E49.51697
G1 X100.182 Y91.6 E49.63765
G1 X100.687 Y92.1 E49.70481
G1 X123.731 Y92.1 E51.88247
G1 X124.117 Y91.939 E51.92199
G1 X124.451 Y91.6 E51.96696
G1 X125.912 Y91.6 E52.10503
G1 X126.282 Y91.314 E52.14922
G1 X126.508 Y90.439 E52.23462
G1 X127.373 Y90.4 E52.31644
G1 X129.441 Y90.546 E52.51236
G1 X130.308 Y90.545 E52.59429
G1 X130.317 Y90.55 E52.59526
G1 X129.6 Y90.55 E52.66302
G1 X129.099 Y91.05 E52.72991
G1 X128.939 Y91.05 E52.74503
G1 X128.323 Y91.666 E52.82735
G1 X128.323 Y91.92 E52.85135
G1 X128.287 Y91.956 E52.85617
G1 X128.288 Y99.853 E53.60243
G1 X128.324 Y99.889 E53.60724
G1 X128.324 Y100.146 E53.63153
G1 X128.942 Y100.758 E53.71372
G1 X131.663 Y100.758 E53.97086
G1 X132.279 Y100.142 E54.05318
G1 X132.279 Y99.887 E54.07728
G1 X132.314 Y99.852 E54.08195
G1 X132.313 Y91.955 E54.82822
G1 X132.278 Y91.92 E54.8329
G1 X132.278 Y91.662 E54.85728
G1 X131.66 Y91.05 E54.93947
G1 X131.494 Y91.05 E54.95516
G1 X131.085 Y90.645 E55.00955
G1 X133.274 Y90.401 E55.21769
G1 X134.007 Y90.534 E55.28809
G1 X134.314 Y90.571 E55.31731
G1 X134.314 Y91.25 E55.38148
G1 X134.664 Y91.6 E55.42825
G1 X136.268 Y91.6 E55.57983
G1 X136.769 Y92.1 E55.64672
G1 X145.308 Y92.101 E56.45366
G1 X145.308 Y94.787 E56.70748
G1 X145.93 Y95.442 E56.79284
G1 X146.219 Y95.855 E56.84048
G1 X146.481 Y96.343 E56.89282
G1 X146.562 Y96.539 E56.91286
G1 X146.562 Y126.453 E59.73973
G1 X146.315 Y127.131 E59.80792
G1 X145.847 Y127.6 E59.87054
G1 X145.763 Y127.74 E59.88597
G1 X145.309 Y128.208 E59.94758
G1 X145.308 Y130.9 E60.20198
G1 X136.371 Y130.9 E61.04652
G1 X135.985 Y131.061 E61.08605
G1 X135.65 Y131.4 E61.13108
G1 X134.711 Y131.4 E61.21982
G1 X134.329 Y131.63 E61.26196
G1 X133.849 Y132.531 E61.35843
G1 X133.337 Y132.534 E61.40681
G1 X133.186 Y132.563 E61.42135
G1 X130.734 Y132.455 E61.65328
G1 X130.48 Y132.455 E61.67729
G1 X130.309 Y132.386 E61.69471
G1 X129.111 Y132.451 E61.80809
G1 X128.479 Y132.477 E61.86786
G1 X128.285 Y132.488 E61.88623
G1 X127.751 Y132.551 E61.93704
G1 X127.383 Y132.585 E61.97196
G1 X126.868 Y132.527 E62.02094
G1 X126.312 Y132.452 E62.07396
G1 X126.155 Y131.698 E62.14674
G1 X125.787 Y131.4 E62.19149
G1 X124.915 Y131.4 E62.27389
G1 X124.41 Y130.9 E62.34105
G1 X100.572 Y130.9 E64.59374
G1 X100.07 Y131.4 E64.66069
G1 X98.818 Y131.4 E64.77901
G1 X98.439 Y131.645 E64.82165
G1 X98.018 Y132.572 E64.91787
G1 X96.949 Y132.539 E65.01894
G1 X96.301 Y132.525 E65.08019
G1 X94.576 Y132.45 E65.24335
G1 X95.783 Y132.45 E65.35741
G1 X96.399 Y131.834 E65.43974
G1 X96.406 Y131.491 E65.47216
G1 X96.562 Y131.334 E65.49307
G1 X96.561 Y122.848 E66.295
G1 X95.943 Y122.236 E66.37719
G1 X92.731 Y122.236 E66.68073
G1 X92.115 Y122.852 E66.76305
G1 X92.108 Y123.142 E66.79046
G1 X92.109 Y131.545 E67.58455
G1 X92.116 Y131.838 E67.61224
G1 X92.734 Y132.45 E67.69443
G1 X90.799 Y132.621 E67.87801
G1 X90.799 Y132.397 E67.89917
G1 X90.403 Y132.069 E67.94776
G1 X90.051 Y132.138 E67.98166
G1 X90.051 Y131.75 E68.01833
G1 X89.701 Y131.4 E68.0651
G1 X88.369 Y131.4 E68.19098
G1 X87.868 Y130.9 E68.25787
G1 X76.231 Y130.899 E69.35756
G1 X76.232 Y92.1 E73.02407
G0 F4320 X128.323 Y122.852
G1 F1800 X128.323 Y123.106 E73.04807
G1 X128.287 Y123.142 E73.05288
G1 X128.288 Y131.045 E73.79972
G1 X128.324 Y131.081 E73.80453
G1 X128.324 Y131.338 E73.82881
G1 X128.942 Y131.95 E73.911
G1 X131.663 Y131.95 E74.16814
G1 X132.279 Y131.334 E74.25046
G1 X132.279 Y131.079 E74.27456
G1 X132.314 Y131.044 E74.27924
G1 X132.313 Y123.141 E75.02607
G1 X132.278 Y123.106 E75.03075
G1 X132.278 Y122.848 E75.05513
G1 X131.66 Y122.236 E75.13732
G1 X128.939 Y122.236 E75.39446
G1 X128.323 Y122.852 E75.47678
G0 F4320 X128.315 Y122.663
G1 F1800 X128.315 Y100.334 E77.58687
G1 X128.302 Y100.319
G1 X96.582 Y100.319 E80.58441
G0 F4320 X95.653 Y100.898
G1 F1800 X95.653 Y122.096 E82.58762
G10
G0 F4320 X96.7 Y123.649
G11
G1 F1800 X128.147 Y123.649 E85.55936
G0 F4320 X128.147 Y125.982
G1 F1800 X96.7 Y125.982 E88.5311
G0 F4320 X96.7 Y128.315
G1 F1800 X128.147 Y128.315 E91.50285
G0 F4320 X128.147 Y130.648
G1 F1800 X96.7 Y130.648 E94.47459
G0 F4320 X97.986 Y132.304
G1 F1800 X97.986 Y91.063 E98.37186
G1 X97.91 Y90.987
G1 X96.398 Y90.987 E98.51475
G0 F4320 X96.701 Y93.32
G1 F1800 X128.148 Y93.32 E101.48649
G0 F4320 X128.315 Y91.477
G1 F1800 X128.315 Y90.608 E101.56861
G0 F4320 X128.804 Y90.987
G1 F1800 X126.511 Y90.987 E101.7853
G0 F4320 X125.982 Y91.722
G1 F1800 X125.982 Y131.377 E105.53269
G0 F4320 X128.315 Y131.526
G1 F1800 X128.315 Y132.347 E105.61028
G0 F4320 X130.648 Y132.315
G1 F1800 X130.648 Y132.09 E105.63154
G10
G0 F4320 X132.453 Y130.648
G11
G1 F1800 X145.168 Y130.648 E106.83311
G0 F4320 X144.646 Y130.76
G1 F1800 X144.646 Y92.241 E110.47315
G0 F4320 X145.168 Y93.32
G1 F1800 X132.453 Y93.32 E111.67472
G0 F4320 X132.453 Y95.653
G1 F1800 X145.908 Y95.653 E112.94622
G0 F4320 X146.422 Y97.986
G1 F1800 X132.453 Y97.986 E114.26629
G0 F4320 X132.298 Y100.319
G1 F1800 X146.422 Y100.319 E115.60101
G0 F4320 X146.422 Y102.652
G1 F1800 X76.372 Y102.652 E122.22073
G0 F4320 X76.372 Y100.319
G1 F1800 X92.115 Y100.319 E123.70845
G0 F4320 X93.32 Y100.898
G1 F1800 X93.32 Y122.096 E125.71166
G10
G0 F4320 X91.968 Y123.649
G11
G1 F1800 X76.371 Y123.649 E127.18557
G0 F4320 X76.371 Y121.316
G1 F1800 X146.422 Y121.316 E133.80539
G0 F4320 X146.422 Y118.983
G1 F1800 X76.371 Y118.983 E140.42521
G0 F4320 X76.372 Y116.65
G1 F1800 X146.422 Y116.65 E147.04494
G0 F4320 X146.422 Y114.317
G1 F1800 X76.372 Y114.317 E153.66466
G0 F4320 X76.372 Y111.984
G1 F1800 X146.422 Y111.984 E160.28439
G0 F4320 X146.422 Y109.651
G1 F1800 X76.372 Y109.651 E166.90411
G0 F4320 X76.372 Y107.318
G1 F1800 X146.422 Y107.318 E173.52384
G0 F4320 X146.422 Y104.985
G1 F1800 X76.372 Y104.985 E180.14356
G0 F4320 X76.372 Y97.986
G1 F1800 X91.989 Y97.986 E181.61937
G0 F4320 X91.989 Y95.653
G1 F1800 X76.372 Y95.653 E183.09518
G0 F4320 X76.372 Y93.32
G1 F1800 X91.989 Y93.32 E184.57098
G0 F4320 X92.118 Y90.987
G1 F1800 X90.241 Y90.987 E184.74836
G0 F4320 X90.987 Y90.657
G1 F1800 X90.987 Y132.464 E188.69912
G0 F4320 X91.968 Y130.648
G1 F1800 X76.371 Y130.648 E190.17304
G0 F4320 X76.989 Y130.759
G1 F1800 X76.989 Y92.24 E193.81308
G0 F4320 X79.322 Y92.24
G1 F1800 X79.322 Y130.759 E197.45313
G0 F4320 X81.655 Y130.759
G1 F1800 X81.655 Y92.24 E201.09317
G0 F4320 X83.988 Y92.24
G1 F1800 X83.988 Y130.759 E204.73322
G0 F4320 X86.321 Y130.759
G1 F1800 X86.321 Y92.24 E208.37326
G0 F4320 X88.654 Y91.74
G1 F1800 X88.654 Y131.26 E212.1079
G0 F4320 X91.968 Y128.315
G1 F1800 X76.371 Y128.315 E213.58182
G0 F4320 X76.371 Y125.982
G1 F1800 X91.968 Y125.982 E215.05574
G10
G0 F4320 X92.299 Y131.762
G0 X92.809 Y132.267
G0 X95.708 Y132.267
G0 X100.319 Y130.955
G11
G1 F1800 X100.319 Y91.933 E218.74332
G0 F4320 X102.652 Y92.24
G1 F1800 X102.652 Y130.76 E222.38346
G0 F4320 X104.985 Y130.76
G1 F1800 X104.985 Y92.24 E226.0236
G0 F4320 X107.318 Y92.24
G1 F1800 X107.318 Y130.76 E229.66374
G0 F4320 X109.651 Y130.76
G1 F1800 X109.651 Y92.24 E233.30388
G0 F4320 X111.984 Y92.24
